assets/spark/icons/InstagramOutline.svg

<svg viewBox="0 0 24 24" xmlns="http://www.w3.org/2000/svg">
<path fill-rule="evenodd" clip-rule="evenodd" d="M12 3.80184C14.6701 3.80184 14.9864 3.812 16.0408 3.86011C17.0158 3.90461 17.5453 4.06752 17.8977 4.20443C18.3644 4.38583 18.6976 4.60257 19.0475 4.95248C19.3974 5.30239 19.6142 5.63555 19.7955 6.10229C19.9325 6.4547 20.0954 6.98419 20.1399 7.95914C20.188 9.01364 20.1982 9.32989 20.1982 12C20.1982 14.6701 20.188 14.9864 20.1399 16.0409C20.0954 17.0158 19.9325 17.5453 19.7955 17.8978C19.6142 18.3645 19.3974 18.6976 19.0475 19.0476C18.6976 19.3975 18.3644 19.6142 17.8977 19.7956C17.5453 19.9325 17.0158 20.0954 16.0408 20.1399C14.9865 20.188 14.6703 20.1982 12 20.1982C9.32969 20.1982 9.01344 20.188 7.95914 20.1399C6.98415 20.0954 6.45466 19.9325 6.10229 19.7956C5.63551 19.6142 5.30235 19.3975 4.95244 19.0476C4.60253 18.6976 4.38579 18.3645 4.20443 17.8978C4.06748 17.5453 3.90457 17.0158 3.86007 16.0409C3.81196 14.9864 3.8018 14.6701 3.8018 12C3.8018 9.32989 3.81196 9.01364 3.86007 7.95918C3.90457 6.98419 4.06748 6.4547 4.20443 6.10229C4.38579 5.63555 4.60253 5.30239 4.95244 4.95248C5.30235 4.60257 5.63551 4.38583 6.10229 4.20443C6.45466 4.06752 6.98415 3.90461 7.9591 3.86011C9.0136 3.812 9.32985 3.80184 12 3.80184ZM12 2C9.28412 2 8.94362 2.01151 7.87701 2.06018C6.81259 2.10876 6.08569 2.27779 5.44958 2.52501C4.79199 2.78056 4.23432 3.1225 3.67839 3.67843C3.12246 4.23436 2.78052 4.79203 2.52497 5.44962C2.27775 6.08573 2.10872 6.81263 2.06014 7.87705C2.01147 8.94362 2 9.28416 2 12C2 14.7159 2.01147 15.0564 2.06014 16.123C2.10872 17.1874 2.27775 17.9143 2.52497 18.5504C2.78052 19.208 3.12246 19.7657 3.67839 20.3216C4.23432 20.8775 4.79199 21.2195 5.44958 21.475C6.08569 21.7223 6.81259 21.8913 7.87701 21.9399C8.94362 21.9885 9.28412 22 12 22C14.7158 22 15.0564 21.9885 16.1229 21.9399C17.1874 21.8913 17.9143 21.7223 18.5504 21.475C19.208 21.2195 19.7656 20.8775 20.3216 20.3216C20.8775 19.7657 21.2194 19.208 21.475 18.5504C21.7222 17.9143 21.8912 17.1874 21.9398 16.123C21.9885 15.0564 22 14.7159 22 12C22 9.28416 21.9885 8.94362 21.9398 7.87705C21.8912 6.81263 21.7222 6.08573 21.475 5.44962C21.2194 4.79203 20.8775 4.23436 20.3216 3.67843C19.7656 3.1225 19.208 2.78056 18.5504 2.52501C17.9143 2.27779 17.1874 2.10876 16.1229 2.06018C15.0564 2.01151 14.7158 2 12 2ZM12 6.86487C9.16393 6.86487 6.86483 9.16397 6.86483 12C6.86483 14.8361 9.16393 17.1352 12 17.1352C14.836 17.1352 17.1351 14.8361 17.1351 12C17.1351 9.16397 14.836 6.86487 12 6.86487ZM12 15.3334C10.159 15.3334 8.66663 13.841 8.66663 12C8.66663 10.1591 10.159 8.66667 12 8.66667C13.8409 8.66667 15.3333 10.1591 15.3333 12C15.3333 13.841 13.8409 15.3334 12 15.3334ZM18.538 6.66199C18.538 7.32474 18.0008 7.86201 17.338 7.86201C16.6753 7.86201 16.138 7.32474 16.138 6.66199C16.138 5.99924 16.6753 5.462 17.338 5.462C18.0008 5.462 18.538 5.99924 18.538 6.66199Z"/>
</svg>

<svg viewBox="0 0 24 24" xmlns="http://www.w3.org/2000/svg">
  <path d="m12,3.8c2.67,0,2.99.01,4.04.06.98.04,1.5.21,1.86.34.47.18.8.4,1.15.75.35.35.57.68.75,1.15.14.35.3.88.34,1.86.05,1.05.06,1.37.06,4.04s-.01,2.99-.06,4.04c-.04.97-.21,1.5-.34,1.86-.18.47-.4.8-.75,1.15-.35.35-.68.57-1.15.75-.35.14-.88.3-1.86.34-1.05.05-1.37.06-4.04.06s-2.99-.01-4.04-.06c-.97-.04-1.5-.21-1.86-.34-.47-.18-.8-.4-1.15-.75-.35-.35-.57-.68-.75-1.15-.14-.35-.3-.88-.34-1.86-.05-1.05-.06-1.37-.06-4.04s.01-2.99.06-4.04c.04-.97.21-1.5.34-1.86.18-.47.4-.8.75-1.15.35-.35.68-.57,1.15-.75.35-.14.88-.3,1.86-.34,1.05-.05,1.37-.06,4.04-.06Zm0-1.8c-2.72,0-3.06.01-4.12.06-1.06.05-1.79.22-2.43.46-.66.26-1.22.6-1.77,1.15s-.9,1.11-1.15,1.77c-.25.64-.42,1.36-.46,2.43-.05,1.07-.06,1.41-.06,4.12s.01,3.06.06,4.12c.05,1.06.22,1.79.46,2.43.26.66.6,1.22,1.15,1.77s1.11.9,1.77,1.15c.64.25,1.36.42,2.43.46,1.07.05,1.41.06,4.12.06s3.06-.01,4.12-.06c1.06-.05,1.79-.22,2.43-.46.66-.26,1.22-.6,1.77-1.15.56-.56.9-1.11,1.15-1.77.25-.64.42-1.36.46-2.43.05-1.07.06-1.41.06-4.12s-.01-3.06-.06-4.12c-.05-1.06-.22-1.79-.46-2.43-.26-.66-.6-1.22-1.15-1.77-.56-.56-1.11-.9-1.77-1.15-.64-.25-1.36-.42-2.43-.46-1.07-.05-1.41-.06-4.12-.06Zm0,4.86c-2.84,0-5.14,2.3-5.14,5.14s2.3,5.14,5.14,5.14,5.14-2.3,5.14-5.14-2.3-5.14-5.14-5.14Zm0,8.47c-1.84,0-3.33-1.49-3.33-3.33s1.49-3.33,3.33-3.33,3.33,1.49,3.33,3.33-1.49,3.33-3.33,3.33Zm6.54-8.67c0,.66-.54,1.2-1.2,1.2s-1.2-.54-1.2-1.2.54-1.2,1.2-1.2,1.2.54,1.2,1.2Z"/>
</svg>
